resources/svg/shield-tick.svg

<svg xmlns="http://www.w3.org/2000/svg" viewBox="0 0 15 15" fill="currentColor"><path fill-rule="evenodd" clip-rule="evenodd" d="M7.25193 0.0658784C7.40565 -0.0219595 7.59435 -0.0219595 7.74807 0.0658784L14.7481 4.06588C14.9039 4.1549 15 4.32057 15 4.5V5.21989C15 9.75232 11.9954 13.7356 7.63736 14.9808C7.54758 15.0064 7.45242 15.0064 7.36264 14.9808C3.0046 13.7356 0 9.75232 0 5.21989V4.5C0 4.32057 0.096143 4.1549 0.251931 4.06588L7.25193 0.0658784ZM7.0718 10.7107L11.3905 5.31235L10.6096 4.68765L6.92825 9.28933L4.32012 7.11589L3.67993 7.88411L7.0718 10.7107Z" fill="black"/></svg>

<svg xmlns="http://www.w3.org/2000/svg" viewBox="0 0 15 15" fill="currentColor"><path fill-rule="evenodd" clip-rule="evenodd" d="M7.252.066a.5.5 0 01.496 0l7 4A.5.5 0 0115 4.5v.72a10.15 10.15 0 01-7.363 9.76.5.5 0 01-.274 0A10.152 10.152 0 010 5.22V4.5a.5.5 0 01.252-.434l7-4zm-.18 10.645l4.318-5.399-.78-.624-3.682 4.601L4.32 7.116l-.64.768 3.392 2.827z" fill="currentColor"/></svg>
